X: 1
T:THE EVICTION -- JIG
B:Ryan's Mammoth Collection, p104
N:"Scat:ter the Mud" in CRE 1.
N:"The Maids of Tramore" Roche
Z:Paul de Grae <sullgrae:iol.ie> irtrad-l 2000-09-21
R:jig
M:6/8
L:1/8
K:G
d |: eAA BAA | eAA ABd | eAA B2 A | BGG GBd |
eAA BAA | eAA ABd | e/f/ed B2 A |1 BGG GBd :|
2BGG G3 |: gfg efg | fag fed | gfg efg | afd d3 | e3 efg |
fag fed | e/f/ed B2 A |1 BGG GBd :|2 BGG G3 ||
